images/pages/footer/telegram.svg

<?xml version="1.0" encoding="UTF-8"?>
<svg width="30px" height="30px" viewBox="0 0 30 30" version="1.1" xmlns="http://www.w3.org/2000/svg" xmlns:xlink="http://www.w3.org/1999/xlink">
    <!-- Generator: Sketch 45.2 (43514) - http://www.bohemiancoding.com/sketch -->
    <title>noun_640874_cc</title>
    <desc>Created with Sketch.</desc>
    <defs></defs>
    <g id="Page-1" stroke="none" stroke-width="1" fill="none" fill-rule="evenodd">
        <g id="TelegramIcon" transform="translate(-33.000000, -33.000000)" fill-rule="nonzero" fill="#DCDCDC">
            <g id="noun_640874_cc" transform="translate(33.000000, 33.000000)">
                <path d="M12.7982143,17.9725 C13.2028571,18.2739286 13.6082143,18.5764286 14.0139286,18.8785714 C13.5903571,19.2964286 13.1660714,19.7146429 12.7439286,20.1321429 C12.7046429,20.1725 12.6678571,20.2146429 12.6292857,20.2557143 L12.6496429,19.9792857 C12.6982143,19.3107143 12.7471429,18.6410714 12.7982143,17.9725 Z M16.1271429,12.0782143 C14.0689286,13.3764286 12.0107143,14.6782143 9.95142857,15.9757143 C9.90964286,16.0017857 9.86392857,16.0221429 9.8175,16.0432143 C10.0871429,16.9053571 10.3567857,17.7678571 10.6257143,18.6307143 C10.8178571,19.2378571 11.0171429,19.8435714 11.1989286,20.4532143 C11.2739286,20.7060714 11.4039286,20.8414286 11.6782143,20.7935714 C11.7542857,19.7617857 11.8271429,18.7307143 11.905,17.6985714 C11.9139286,17.5782143 11.9282143,17.4560714 11.9428571,17.3357143 C11.8264286,17.2689286 11.8775,17.1410714 11.9178571,17.0989286 C11.9889286,17.0257143 12.06,16.9510714 12.1310714,16.8767857 C12.1564286,16.8532143 12.1828571,16.8292857 12.2075,16.8057143 C12.2432143,16.7685714 12.2778571,16.7314286 12.3132143,16.6946429 C12.4835714,16.5360714 12.6532143,16.3746429 12.8235714,16.2153571 C12.9207143,16.1235714 13.0189286,16.0314286 13.1164286,15.94 C13.3807143,15.6925 13.6446429,15.4453571 13.9135714,15.2017857 C14.5971429,14.5803571 15.2946429,13.9732143 15.9796429,13.3542857 C16.8528571,12.5642857 17.7239286,11.7714286 18.5889286,10.9725 C18.6525,10.8842857 18.6935714,10.7707143 18.7492857,10.6735714 C18.5942857,10.6942857 18.4125,10.6685714 18.2892857,10.7410714 C17.5610714,11.175 16.8446429,11.6260714 16.1271429,12.0782143 Z M29.96,14.9996429 C29.96,23.2617857 23.2621429,29.9596429 15,29.9596429 C6.7375,29.9596429 0.0403571429,23.2617857 0.0403571429,14.9996429 C0.0403571429,6.73714286 6.7375,0.0396428571 15,0.0396428571 C23.2621429,0.0396428571 29.96,6.73714286 29.96,14.9996429 Z M21.6803571,9.03964286 C21.6725,8.9825 21.6667857,8.92392857 21.6553571,8.86785714 C21.5235714,8.23285714 21.1757143,8.04107143 20.5528571,8.25428571 C20.4614286,8.285 20.3678571,8.305 20.275,8.33035714 C19.9275,8.47392857 19.5835714,8.6275 19.2310714,8.75928571 C18.6467857,8.97964286 18.0567857,9.18571429 17.4675,9.39821429 C17.1082143,9.54785714 16.7514286,9.70428571 16.3889286,9.84607143 C15.4807143,10.2010714 14.5707143,10.5492857 13.6610714,10.9007143 C11.7889286,11.6225 9.91642857,12.3439286 8.04285714,13.0657143 C7.62214286,13.2282143 7.19785714,13.3821429 6.78142857,13.5553571 C6.41535714,13.7064286 6.04178571,13.8528571 5.70464286,14.0557143 C5.55535714,14.1453571 5.39107143,14.3810714 5.40821429,14.5307143 C5.42464286,14.6817857 5.65571429,14.8110714 5.79714286,14.9460714 C5.82285714,14.9707143 5.86678571,14.9785714 5.90392857,14.99 C6.89642857,15.2971429 7.88892857,15.6042857 8.88214286,15.9107143 C8.87678571,16.0142857 8.88857143,16.12 8.92107143,16.2246429 L9.28214286,17.3828571 L9.75678571,18.9025 C9.8125,19.0789286 9.86857143,19.2521429 9.92357143,19.4253571 C10.0585714,19.8485714 10.1989286,20.2857143 10.3264286,20.7135714 C10.6042857,21.6417857 11.3535714,21.7135714 11.5767857,21.7135714 C11.61,21.7135714 11.6453571,21.7114286 11.6803571,21.71 C11.7146429,21.7114286 11.7489286,21.7125 11.7828571,21.7125 C12.3560714,21.7125 12.7242857,21.3967857 12.9435714,21.2078571 C12.9839286,21.1725 13.0225,21.14 13.0503571,21.1185714 C13.0957143,21.0846429 13.1382143,21.0478571 13.1746429,21.0067857 C13.2032143,20.9771429 13.2292857,20.9464286 13.2575,20.9171429 C13.3035714,20.8657143 13.3467857,20.8175 13.385,20.7796429 C13.7182143,20.4496429 14.0507143,20.1207143 14.3846429,19.7914286 L14.7803571,19.4010714 C14.8360714,19.4396429 14.8917857,19.4778571 14.9478571,19.5160714 C15.8482143,20.1882143 16.7471429,20.8635714 17.6507143,21.5321429 C18.325,22.0307143 18.7964286,21.9014286 19.1228571,21.1396429 C19.2617857,20.4971429 19.4,19.8532143 19.5378571,19.2121429 C19.6642857,18.5710714 19.7892857,17.9317857 19.9142857,17.2921429 C19.9946429,16.9407143 20.0739286,16.5882143 20.1532143,16.2371429 C20.3639286,15.2471429 20.5742857,14.2560714 20.7839286,13.2657143 C20.8521429,12.9496429 20.9189286,12.6339286 20.9867857,12.3178571 C21.0032143,12.2428571 21.0228571,12.1675 21.0378571,12.0917857 C21.2528571,11.0742857 21.4664286,10.0575 21.6803571,9.03964286 Z" id="Shape"></path>
            </g>
        </g>
    </g>
</svg>

<svg width="30" height="30" viewBox="0 0 30 30" xmlns="http://www.w3.org/2000/svg"><title>noun_640874_cc</title><path d="M12.798 17.973c.405.3.81.603 1.216.906l-1.27 1.253c-.04.04-.076.083-.115.124l.02-.277c.05-.668.098-1.338.15-2.006zm3.33-5.895c-2.06 1.298-4.117 2.6-6.177 3.898-.041.026-.087.046-.133.067l.808 2.588c.192.607.391 1.213.573 1.822.075.253.205.388.48.34.075-1.031.148-2.062.226-3.094.009-.12.023-.243.038-.363-.117-.067-.066-.195-.025-.237l.213-.222.076-.071c.036-.037.07-.075.106-.111l.51-.48a106.705 106.705 0 0 1 1.09-1.013c.684-.622 1.382-1.229 2.067-1.848.873-.79 1.744-1.583 2.609-2.381.064-.089.105-.202.16-.3-.155.021-.336-.004-.46.068-.728.434-1.444.885-2.162 1.337zM29.96 15c0 8.262-6.698 14.96-14.96 14.96S.04 23.262.04 15C.04 6.737 6.737.04 15 .04 23.262.04 29.96 6.737 29.96 15zm-8.28-5.96c-.008-.057-.013-.116-.025-.172-.131-.635-.48-.827-1.102-.614-.092.031-.185.051-.278.076-.348.144-.691.297-1.044.43-.584.22-1.174.426-1.764.638-.359.15-.716.306-1.078.448-.908.355-1.818.703-2.728 1.055l-5.618 2.165c-.42.162-.845.316-1.262.49-.366.15-.74.297-1.076.5-.15.09-.314.325-.297.475.017.15.248.28.39.415.025.025.069.033.106.044l2.978.92a.898.898 0 0 0 .04.315l.36 1.158.475 1.52.167.522c.135.424.275.86.402 1.289.278.928 1.028 1 1.25 1 .034 0 .07-.003.104-.004l.103.002c.573 0 .941-.315 1.16-.504.04-.035.08-.068.107-.09a.828.828 0 0 0 .125-.111l.082-.09c.047-.051.09-.1.128-.137l1-.989.395-.39.168.115c.9.672 1.8 1.348 2.703 2.016.674.499 1.145.37 1.472-.392l.415-1.928.376-1.92.24-1.055.63-2.971.203-.948c.016-.075.036-.15.05-.226.216-1.018.43-2.035.643-3.052z" fill-rule="nonzero" fill="#DCDCDC"/></svg>
